X:9
T:12c. Piper's Cow, The
C:Larry Mallette
N:A friend asked me for a new tune to use along with her story telling. Since she was planning to tell the story of the Cow that Ate the Piper, the title just stuck.
R:reel
M:C|
Q:360
K:Em
"Reel"
ef|gB~B2 fBeB|dedB GABG|EGDG EGAB|cdec A3f|
gB~B2 fBeB|dedB GDEG|ABcd cBAG|1 ~F3G E2:|2FEFG E2||
EF|GB~B2 eBfB|~g3f ecA2|Beed cAF2|~E3F G2GA|
BeeB eBfB|~g3f ecAB|cAFA BGE2|1FGAB E2:|2FEFG E2|]





% Generated more or less automatically by swtoabc by Erich Rickheit KSC
